assets/dude/Did–Hank.svg

<svg width="227" height="99" viewBox="0 0 227 99" fill="none" xmlns="http://www.w3.org/2000/svg">
<path d="M1.58031 0.719971C0.880313 0.719971 0.320312 1.27997 0.320312 1.97997V34.74C0.320312 35.44 0.880313 36 1.58031 36H15.4403C16.1403 36 16.7003 36.56 16.7003 37.26V62.46C16.7003 63.02 16.1403 63.72 15.4403 63.72H1.58031C0.880313 63.72 0.320312 64.42 0.320312 64.98V97.74C0.320312 98.44 0.880313 99 1.58031 99H53.9403C70.6003 99 84.1803 85.42 84.1803 68.76V30.96C84.1803 14.3 70.6003 0.719971 53.9403 0.719971H1.58031ZM74.1003 54.9C74.1003 59.66 70.1803 63.72 65.2803 63.72H28.0403C27.3403 63.72 26.7803 63.02 26.7803 62.46V37.26C26.7803 36.56 27.3403 36 28.0403 36H65.2803C70.1803 36 74.1003 39.92 74.1003 44.82V54.9Z" fill="#FF1C31"/>
<path d="M93.3186 0.719971C92.6186 0.719971 92.0586 1.27997 92.0586 1.97997V34.74C92.0586 35.44 92.6186 36 93.3186 36H107.179C107.879 36 108.439 36.56 108.439 37.26V62.46C108.439 63.16 107.879 63.72 107.179 63.72H93.3186C92.6186 63.72 92.0586 64.28 92.0586 64.98V97.74C92.0586 98.44 92.6186 99 93.3186 99H133.639C134.339 99 134.899 98.44 134.899 97.74V64.98C134.899 64.28 134.339 63.72 133.639 63.72H119.779C119.079 63.72 118.519 63.16 118.519 62.46V37.26C118.519 36.56 119.079 36 119.779 36H133.639C134.339 36 134.899 35.44 134.899 34.74V1.97997C134.899 1.27997 134.339 0.719971 133.639 0.719971H93.3186Z" fill="#FF1C31"/>
<path d="M144.041 0.719971C143.341 0.719971 142.781 1.27997 142.781 1.97997V34.74C142.781 35.44 143.341 36 144.041 36H157.901C158.601 36 159.161 36.56 159.161 37.26V62.46C159.161 63.02 158.601 63.72 157.901 63.72H144.041C143.341 63.72 142.781 64.42 142.781 64.98V97.74C142.781 98.44 143.341 99 144.041 99H196.401C213.061 99 226.641 85.42 226.641 68.76V30.96C226.641 14.3 213.061 0.719971 196.401 0.719971H144.041ZM216.561 54.9C216.561 59.66 212.641 63.72 207.741 63.72H170.501C169.801 63.72 169.241 63.02 169.241 62.46V37.26C169.241 36.56 169.801 36 170.501 36H207.741C212.641 36 216.561 39.92 216.561 44.82V54.9Z" fill="#FF1C31"/>
</svg>

<svg xmlns="http://www.w3.org/2000/svg" fill="none" viewBox="0 0 227 99"><path fill="#FF1C31" d="M1.58.72C.88.72.32 1.28.32 1.98v32.76c0 .7.56 1.26 1.26 1.26h13.86c.7 0 1.26.56 1.26 1.26v25.2c0 .56-.56 1.26-1.26 1.26H1.58c-.7 0-1.26.7-1.26 1.26v32.76c0 .7.56 1.26 1.26 1.26h52.36c16.66 0 30.24-13.58 30.24-30.24v-37.8C84.18 14.3 70.6.72 53.94.72H1.58zM74.1 54.9c0 4.76-3.92 8.82-8.82 8.82H28.04c-.7 0-1.26-.7-1.26-1.26v-25.2c0-.7.56-1.26 1.26-1.26h37.24c4.9 0 8.82 3.92 8.82 8.82V54.9zM93.319.72c-.7 0-1.26.56-1.26 1.26v32.76c0 .7.56 1.26 1.26 1.26h13.86c.7 0 1.26.56 1.26 1.26v25.2c0 .7-.56 1.26-1.26 1.26h-13.86c-.7 0-1.26.56-1.26 1.26v32.76c0 .7.56 1.26 1.26 1.26h40.32c.7 0 1.26-.56 1.26-1.26V64.98c0-.7-.56-1.26-1.26-1.26h-13.86c-.7 0-1.26-.56-1.26-1.26v-25.2c0-.7.56-1.26 1.26-1.26h13.86c.7 0 1.26-.56 1.26-1.26V1.98c0-.7-.56-1.26-1.26-1.26h-40.32zM144.041.72c-.7 0-1.26.56-1.26 1.26v32.76c0 .7.56 1.26 1.26 1.26h13.86c.7 0 1.26.56 1.26 1.26v25.2c0 .56-.56 1.26-1.26 1.26h-13.86c-.7 0-1.26.7-1.26 1.26v32.76c0 .7.56 1.26 1.26 1.26h52.36c16.66 0 30.24-13.58 30.24-30.24v-37.8c0-16.66-13.58-30.24-30.24-30.24h-52.36zm72.52 54.18c0 4.76-3.92 8.82-8.82 8.82h-37.24c-.7 0-1.26-.7-1.26-1.26v-25.2c0-.7.56-1.26 1.26-1.26h37.24c4.9 0 8.82 3.92 8.82 8.82V54.9z"/></svg>
